X: 17185
T: Henrik's Concertina
R: jig
M: 6/8
K: Gmajor
Bc|dBB cAA|BGE DEG|c2A BGG|GFG AFD|
ded c2A|B2G ABc|ABc dBG|1 ABA G:|2 ABA G2A||
K:Dmaj
|:d2e faa|bag fed|fed fed|dcd e2A|
d2e faa|gab gab|afd afd|1 efe d2A}:|2 efe d3||

